svg/fluentui-system-icons/ic_fluent_arrow_export_ltr_16_filled.svg

<svg width="16" height="16" viewBox="0 0 16 16" fill="none" xmlns="http://www.w3.org/2000/svg">
<path d="M1.75 3C2.16421 3 2.5 3.33579 2.5 3.75V12.25C2.5 12.6642 2.16421 13 1.75 13C1.33579 13 1 12.6642 1 12.25V3.75C1 3.33579 1.33579 3 1.75 3ZM10.2197 3.71967C10.5126 3.42678 10.9874 3.42678 11.2803 3.71967L14.7803 7.21967C15.0732 7.51256 15.0732 7.98744 14.7803 8.28033L11.2803 11.7803C10.9874 12.0732 10.5126 12.0732 10.2197 11.7803C9.92678 11.4874 9.92678 11.0126 10.2197 10.7197L12.4393 8.5H4.75C4.33579 8.5 4 8.16421 4 7.75C4 7.33579 4.33579 7 4.75 7H12.4393L10.2197 4.78033C9.92678 4.48744 9.92678 4.01256 10.2197 3.71967Z" fill="#212121"/>
</svg>

<svg xmlns="http://www.w3.org/2000/svg" width="16" height="16"><path d="M1.75 3a.75.75 0 0 1 .75.75v8.5a.75.75 0 0 1-1.5 0v-8.5A.75.75 0 0 1 1.75 3Zm8.47.72a.75.75 0 0 1 1.06 0l3.5 3.5a.75.75 0 0 1 0 1.06l-3.5 3.5a.75.75 0 1 1-1.06-1.06l2.22-2.22H4.75a.75.75 0 0 1 0-1.5h7.69l-2.22-2.22a.75.75 0 0 1 0-1.06Z"/></svg>
